X: 695
T: Girls Will You Take Him?   #2
R: reel
%S: s:2 b:16(8+8)
B: Francis O'Neill: "The Dance Music of Ireland" (1907) #695
Z: Frank Nordberg - http://www.musicaviva.com
F: http://www.musicaviva.com/abc/tunes/ireland/oneill-1001/0695/oneill-1001-0695-1.abc
M: C|
L: 1/8
K: Dmix
%%slurgraces 1
%%graceslurs 1
"^A"\
|: D3E FGAF | D2(AF) GECE | D3E FGAB | cAdB [1 cAGE :|[2 cAGB "^B"||: Addc dfed |
| AcBd [1 cAGB | Adde fdeB | cAdB cAGE :|[2 cdeg | agef {a}gfed | cAdB {d}cAGE |]
